public/favicon.svg

<svg xmlns="http://www.w3.org/2000/svg" viewBox="0 0 193.757 193.757" style="enable-background:new 0 0 193.757 193.757" xml:space="preserve"><path d="M159.604 193.757h-21.885a2 2 0 0 1-2-2v-8h-77.9v8a2 2 0 0 1-2 2H33.934a2 2 0 0 1-2-2v-8H21.031C13.294 183.757 7 177.463 7 169.726V14.03C7 6.294 13.294 0 21.031 0h151.694c7.737 0 14.031 6.294 14.031 14.03v155.695c0 7.737-6.294 14.031-14.031 14.031h-11.122v8a2 2 0 0 1-1.999 2.001zm-19.885-4h17.885v-6h-17.885v6zm-103.785 0h17.885v-6H35.934v6zm123.67-10h13.122c5.531 0 10.031-4.5 10.031-10.031V14.03c0-5.53-4.5-10.03-10.031-10.03H21.031C15.5 4 11 8.5 11 14.03v155.695c0 5.531 4.5 10.031 10.031 10.031h138.573zm-27.669-9.375H30.531c-5.531 0-10.031-4.5-10.031-10.031V65.156c0-5.531 4.5-10.031 10.031-10.031h132.694c5.531 0 10.031 4.5 10.031 10.031v95.194c0 5.531-4.5 10.031-10.031 10.031h-31.284l-.006.001zm29.314-4h1.977a6.038 6.038 0 0 0 6.031-6.031v-13.304l-6.579-6.579-13.649 13.648 11.989 11.989c.086.087.164.179.231.277zm-24.486 0h18.875l-9.438-9.438-9.437 9.438zm-8.468 0h2.812l12.266-12.266-13.648-13.648-13.649 13.648 11.989 11.989c.085.087.163.179.23.277zm-24.486 0h18.875l-9.438-9.438-9.437 9.438zm-8.469 0h2.857a2 2 0 0 1 .231-.276l11.989-11.989-13.649-13.648-13.648 13.647 11.988 11.989c.087.087.164.179.232.277zm-24.486 0h18.874l-9.438-9.437-9.436 9.437zm-8.423 0h2.813a2 2 0 0 1 .231-.276l11.988-11.989-13.648-13.648-13.649 13.648 12.265 12.265zm-24.532 0h18.875l-9.438-9.438-9.437 9.438zM24.5 146.827v13.523a6.038 6.038 0 0 0 6.031 6.031h1.757a2 2 0 0 1 .231-.276l11.989-11.989-13.649-13.648-6.359 6.359zm42.143-9.187 13.648 13.648 13.649-13.649-13.648-13.649-13.649 13.65zm32.955-.001 13.648 13.649 13.648-13.649-13.648-13.648-13.648 13.648zm-65.91 0 13.648 13.649 13.648-13.649-13.647-13.649-13.649 13.649zm98.864 0 13.648 13.649 13.648-13.649L146.2 123.99l-13.648 13.649zm32.954 0 3.751 3.752v-7.503l-3.751 3.751zM24.5 134.107v7.063l3.531-3.532-3.531-3.531zm25.665-12.945 13.648 13.648 13.649-13.649-13.648-13.648-13.649 13.649zm98.863 0 13.649 13.648 6.579-6.579V114.07a2.022 2.022 0 0 1-.186-.164l-6.394-6.394-13.648 13.65zM24.5 128.451l6.359 6.359 13.649-13.648-13.649-13.649-6.359 6.359v14.579zm91.574-7.289 13.649 13.648 13.648-13.648-13.649-13.649-13.648 13.649zm-32.954 0 13.648 13.648 13.649-13.648-13.649-13.649-13.648 13.649zm49.432-16.477 13.648 13.649 13.649-13.649-13.649-13.65-13.648 13.65zm-98.864 0 13.649 13.649 13.648-13.649-13.648-13.65-13.649 13.65zm65.91 0 13.648 13.648 13.648-13.648-13.648-13.649-13.648 13.649zm-32.955 0 13.648 13.648 13.649-13.648-13.648-13.65-13.649 13.65zm98.863 0 3.751 3.751v-7.502l-3.751 3.751zM24.5 101.153v7.063l3.531-3.531-3.531-3.532zm124.528-12.946 13.649 13.649 6.579-6.579v-14.14l-6.579-6.579-13.649 13.649zM24.5 95.497l6.359 6.359 13.649-13.649L30.86 74.559l-6.36 6.359v14.579zm91.574-7.29 13.648 13.649 13.649-13.649-13.649-13.648-13.648 13.648zm-65.909 0 13.649 13.648 13.648-13.648-13.648-13.649-13.649 13.649zm32.955 0 13.648 13.648 13.649-13.648-13.648-13.649L83.12 88.207zm16.477-16.478 13.649 13.649 13.648-13.648-12.542-12.543a1.813 1.813 0 0 1-.061-.063H112.2L99.597 71.729zm32.955 0 13.648 13.65 13.648-13.649-12.604-12.604h-2.089l-12.603 12.603zm-98.864.001 13.648 13.648 13.649-13.649-12.603-12.604h-2.089L33.688 71.73zm32.955-.001 13.649 13.648L93.94 71.729 81.336 59.125h-2.091l-.061.063-12.541 12.541zm98.863 0 3.751 3.752v-7.503l-3.751 3.751zM24.5 68.198v7.063l3.531-3.532-3.531-3.531zm.415-5.241 5.944 5.944 9.777-9.776H30.531a6.042 6.042 0 0 0-5.616 3.832zm95.031-3.832 9.777 9.776 9.776-9.776h-19.553zm32.955 0 9.776 9.776 6.101-6.101a6.044 6.044 0 0 0-5.553-3.676h-10.324zm-65.909 0 9.776 9.776 9.776-9.776H86.992zm-32.954 0 9.776 9.776 9.776-9.776H54.038zm112.304-11.549H149.73a2 2 0 0 1-2-2v-30.96a2 2 0 0 1 2-2h16.612a2 2 0 0 1 2 2v30.96a2 2 0 0 1-2 2zm-14.613-4h12.612v-26.96h-12.612v26.96zm-19.53 4c-4.146 0-7.52-3.373-7.52-7.52s3.373-7.52 7.52-7.52 7.52 3.373 7.52 7.52-3.373 7.52-7.52 7.52zm0-11.039c-1.94 0-3.52 1.579-3.52 3.52s1.579 3.52 3.52 3.52 3.52-1.579 3.52-3.52-1.579-3.52-3.52-3.52zm-22.864 3.477c-5.468 0-9.917-4.449-9.917-9.917s4.449-9.917 9.917-9.917 9.917 4.449 9.917 9.917-4.449 9.917-9.917 9.917zm0-15.834c-3.263 0-5.917 2.654-5.917 5.917s2.654 5.917 5.917 5.917 5.917-2.654 5.917-5.917-2.654-5.917-5.917-5.917zM83.868 40.014c-5.468 0-9.917-4.449-9.917-9.917s4.449-9.917 9.917-9.917 9.917 4.449 9.917 9.917-4.449 9.917-9.917 9.917zm0-15.834c-3.263 0-5.917 2.654-5.917 5.917s2.654 5.917 5.917 5.917 5.917-2.654 5.917-5.917-2.654-5.917-5.917-5.917zM58.401 40.014c-5.468 0-9.917-4.449-9.917-9.917s4.449-9.917 9.917-9.917 9.917 4.449 9.917 9.917-4.449 9.917-9.917 9.917zm0-15.834c-3.263 0-5.917 2.654-5.917 5.917s2.654 5.917 5.917 5.917 5.917-2.654 5.917-5.917-2.654-5.917-5.917-5.917zM32.935 37.616c-4.146 0-7.52-3.373-7.52-7.52s3.373-7.52 7.52-7.52 7.52 3.373 7.52 7.52-3.374 7.52-7.52 7.52zm0-11.039c-1.94 0-3.52 1.579-3.52 3.52s1.579 3.52 3.52 3.52 3.52-1.579 3.52-3.52-1.58-3.52-3.52-3.52zm99.264 1.078c-4.146 0-7.52-3.373-7.52-7.52s3.373-7.52 7.52-7.52 7.52 3.373 7.52 7.52-3.373 7.52-7.52 7.52zm0-11.039c-1.94 0-3.52 1.579-3.52 3.52s1.579 3.52 3.52 3.52 3.52-1.579 3.52-3.52-1.579-3.52-3.52-3.52z"/></svg>

<?xml version="1.0" encoding="iso-8859-1"?>
<!-- Generator: Adobe Illustrator 17.1.0, SVG Export Plug-In . SVG Version: 6.00 Build 0)  -->
<!DOCTYPE svg PUBLIC "-//W3C//DTD SVG 1.1//EN" "http://www.w3.org/Graphics/SVG/1.1/DTD/svg11.dtd">
<svg version="1.1" id="Capa_1" xmlns="http://www.w3.org/2000/svg" xmlns:xlink="http://www.w3.org/1999/xlink" x="0px" y="0px"
	 viewBox="0 0 193.757 193.757" style="enable-background:new 0 0 193.757 193.757;" xml:space="preserve">
<path d="M159.604,193.757h-21.885c-1.104,0-2-0.896-2-2v-8h-77.9v8c0,1.104-0.896,2-2,2H33.934c-1.104,0-2-0.896-2-2v-8H21.031
	C13.294,183.757,7,177.463,7,169.726V14.03C7,6.294,13.294,0,21.031,0h151.694c7.737,0,14.031,6.294,14.031,14.03v155.695
	c0,7.737-6.294,14.031-14.031,14.031h-11.122v8C161.604,192.861,160.708,193.757,159.604,193.757z M139.719,189.757h17.885v-6
	h-17.885V189.757z M35.934,189.757h17.885v-6H35.934V189.757z M159.604,179.757h13.122c5.531,0,10.031-4.5,10.031-10.031V14.03
	c0-5.53-4.5-10.03-10.031-10.03H21.031C15.5,4,11,8.5,11,14.03v155.695c0,5.531,4.5,10.031,10.031,10.031H159.604z M131.935,170.382
	c-0.002,0-0.005,0-0.007,0H61.609c-0.004,0-0.01,0-0.014,0H30.531c-5.531,0-10.031-4.5-10.031-10.031v-14.345
	c0-0.005,0-0.009,0-0.014V80.097c0-0.005,0-0.009,0-0.014V65.156c0-5.531,4.5-10.031,10.031-10.031h132.694
	c5.531,0,10.031,4.5,10.031,10.031v95.194c0,5.531-4.5,10.031-10.031,10.031h-31.284
	C131.939,170.382,131.937,170.382,131.935,170.382z M161.249,166.382h1.977c3.325,0,6.031-2.706,6.031-6.031v-13.304l-6.579-6.579
	l-13.649,13.648l11.989,11.989C161.104,166.192,161.182,166.284,161.249,166.382z M136.763,166.382h18.875l-9.438-9.438
	L136.763,166.382z M128.295,166.382h2.812l12.266-12.266l-13.648-13.648l-13.649,13.648l11.989,11.989
	C128.15,166.192,128.228,166.284,128.295,166.382z M103.809,166.382h18.875l-9.438-9.438L103.809,166.382z M95.34,166.382h2.857
	c0.067-0.098,0.145-0.189,0.231-0.276l11.989-11.989l-13.649-13.648L83.12,154.116l11.988,11.989
	C95.195,166.192,95.272,166.284,95.34,166.382z M70.854,166.382h18.874l-9.438-9.437L70.854,166.382z M62.431,166.382h2.813
	c0.067-0.098,0.145-0.189,0.231-0.276l11.988-11.989l-13.648-13.648l-13.649,13.648L62.431,166.382z M37.899,166.382h18.875
	l-9.438-9.438L37.899,166.382z M24.5,146.827v13.523c0,3.325,2.706,6.031,6.031,6.031h1.757c0.067-0.098,0.145-0.189,0.231-0.276
	l11.989-11.989l-13.649-13.648L24.5,146.827z M66.643,137.64l13.648,13.648l13.649-13.649L80.292,123.99L66.643,137.64z
	 M99.598,137.639l13.648,13.649l13.648-13.649l-13.648-13.648L99.598,137.639z M33.688,137.639l13.648,13.649l13.648-13.649
	L47.337,123.99L33.688,137.639z M132.552,137.639l13.648,13.649l13.648-13.649L146.2,123.99L132.552,137.639z M165.506,137.639
	l3.751,3.752v-7.503L165.506,137.639z M24.5,134.107v7.063l3.531-3.532L24.5,134.107z M50.165,121.162l13.648,13.648l13.649-13.649
	l-13.648-13.648L50.165,121.162z M149.028,121.162l13.649,13.648l6.579-6.579V114.07c-0.064-0.05-0.126-0.104-0.186-0.164
	l-6.394-6.394L149.028,121.162z M24.5,128.451l6.359,6.359l13.649-13.648l-13.649-13.649l-6.359,6.359V128.451z M116.074,121.162
	l13.649,13.648l13.648-13.648l-13.649-13.649L116.074,121.162z M83.12,121.162l13.648,13.648l13.649-13.648l-13.649-13.649
	L83.12,121.162z M132.552,104.685l13.648,13.649l13.649-13.649L146.2,91.035L132.552,104.685z M33.688,104.685l13.649,13.649
	l13.648-13.649L47.337,91.035L33.688,104.685z M99.598,104.685l13.648,13.648l13.648-13.648l-13.648-13.649L99.598,104.685z
	 M66.643,104.685l13.648,13.648l13.649-13.648L80.292,91.035L66.643,104.685z M165.506,104.685l3.751,3.751v-7.502L165.506,104.685z
	 M24.5,101.153v7.063l3.531-3.531L24.5,101.153z M149.028,88.207l13.649,13.649l6.579-6.579v-14.14l-6.579-6.579L149.028,88.207z
	 M24.5,95.497l6.359,6.359l13.649-13.649L30.86,74.559l-6.36,6.359V95.497z M116.074,88.207l13.648,13.649l13.649-13.649
	l-13.649-13.648L116.074,88.207z M50.165,88.207l13.649,13.648l13.648-13.648L63.814,74.558L50.165,88.207z M83.12,88.207
	l13.648,13.648l13.649-13.648L96.769,74.558L83.12,88.207z M99.597,71.729l13.649,13.649l13.648-13.648l-12.542-12.543
	c-0.021-0.021-0.041-0.041-0.061-0.063h-2.091L99.597,71.729z M132.552,71.729L146.2,85.379l13.648-13.649l-12.604-12.604h-2.089
	L132.552,71.729z M33.688,71.73l13.648,13.648l13.649-13.649L48.382,59.125h-2.089L33.688,71.73z M66.643,71.729l13.649,13.648
	L93.94,71.729L81.336,59.125h-2.091c-0.02,0.021-0.04,0.042-0.061,0.063L66.643,71.729z M165.506,71.729l3.751,3.752v-7.503
	L165.506,71.729z M24.5,68.198v7.063l3.531-3.532L24.5,68.198z M24.915,62.957l5.944,5.944l9.777-9.776H30.531
	C27.981,59.125,25.796,60.716,24.915,62.957z M119.946,59.125l9.777,9.776l9.776-9.776H119.946z M152.901,59.125l9.776,9.776
	l6.101-6.101c-0.92-2.158-3.063-3.676-5.553-3.676H152.901z M86.992,59.125l9.776,9.776l9.776-9.776H86.992z M54.038,59.125
	l9.776,9.776l9.776-9.776H54.038z M166.342,47.576h-16.612c-1.104,0-2-0.896-2-2v-30.96c0-1.104,0.896-2,2-2h16.612
	c1.104,0,2,0.896,2,2v30.96C168.342,46.681,167.446,47.576,166.342,47.576z M151.729,43.576h12.612v-26.96h-12.612V43.576z
	 M132.199,47.576c-4.146,0-7.52-3.373-7.52-7.52s3.373-7.52,7.52-7.52s7.52,3.373,7.52,7.52S136.346,47.576,132.199,47.576z
	 M132.199,36.537c-1.94,0-3.52,1.579-3.52,3.52s1.579,3.52,3.52,3.52s3.52-1.579,3.52-3.52S134.14,36.537,132.199,36.537z
	 M109.335,40.014c-5.468,0-9.917-4.449-9.917-9.917s4.449-9.917,9.917-9.917s9.917,4.449,9.917,9.917S114.803,40.014,109.335,40.014
	z M109.335,24.18c-3.263,0-5.917,2.654-5.917,5.917s2.654,5.917,5.917,5.917s5.917-2.654,5.917-5.917S112.598,24.18,109.335,24.18z
	 M83.868,40.014c-5.468,0-9.917-4.449-9.917-9.917s4.449-9.917,9.917-9.917s9.917,4.449,9.917,9.917S89.336,40.014,83.868,40.014z
	 M83.868,24.18c-3.263,0-5.917,2.654-5.917,5.917s2.654,5.917,5.917,5.917s5.917-2.654,5.917-5.917S87.131,24.18,83.868,24.18z
	 M58.401,40.014c-5.468,0-9.917-4.449-9.917-9.917s4.449-9.917,9.917-9.917s9.917,4.449,9.917,9.917S63.869,40.014,58.401,40.014z
	 M58.401,24.18c-3.263,0-5.917,2.654-5.917,5.917s2.654,5.917,5.917,5.917s5.917-2.654,5.917-5.917S61.664,24.18,58.401,24.18z
	 M32.935,37.616c-4.146,0-7.52-3.373-7.52-7.52s3.373-7.52,7.52-7.52s7.52,3.373,7.52,7.52S37.081,37.616,32.935,37.616z
	 M32.935,26.577c-1.94,0-3.52,1.579-3.52,3.52s1.579,3.52,3.52,3.52s3.52-1.579,3.52-3.52S34.875,26.577,32.935,26.577z
	 M132.199,27.655c-4.146,0-7.52-3.373-7.52-7.52s3.373-7.52,7.52-7.52s7.52,3.373,7.52,7.52S136.346,27.655,132.199,27.655z
	 M132.199,16.616c-1.94,0-3.52,1.579-3.52,3.52s1.579,3.52,3.52,3.52s3.52-1.579,3.52-3.52S134.14,16.616,132.199,16.616z"/>
<g>
</g>
<g>
</g>
<g>
</g>
<g>
</g>
<g>
</g>
<g>
</g>
<g>
</g>
<g>
</g>
<g>
</g>
<g>
</g>
<g>
</g>
<g>
</g>
<g>
</g>
<g>
</g>
<g>
</g>
</svg>
